X: 1
T: Palmers Gate
C: Joe Liddy
S: Michelle O'Brien
Z: Jack Gilder
M: 4/4
L: 1/8
R: reel
K: Emin
BE~E2 GABG |AdBA GEED|~G3A BAGA|B2dB A3d|
BE~E2 GABG |AdBA GEED|GA B/c/d edBA|1G2FG EFGc:|2G2FG EFGA||
B3d B/c/d ea|gefg edBA|G3B dBB2|GA B/c/d edBA|
B2eB B/c/d ea|gefg edBA|GA B/c/d edBA|1G2FG EFGA:|2G2FG EFGc||
